X: 9873
T: Dermot McLoughlin's
R: barndance
M: 4/4
K: Dmajor
|:AFAd f2 df|e^deg B3 =d|c2 EF G3 A|BAA^G A=GFG|
AFAd f2 df|e^deg B3 =d|c2 EF GABc|e2 dc d4:|
|:fdAd f2 df|e^deg b4|c'bge cABc|(3dfe (3dcB A3 d|
fdAd f2 df|e^deg b4|c'bge cABc|e2 dc d4:|

